X:4
T:The Repeal of the Union
R:Reel
M:C|
K:Dmix
|: ADD/D/D AGFD | E2cE dEcd | ADDD AGFA |1 GEcE Dd^cd :|2 GE=cE D4 ||
| d2de fded | ^cABd cAG=c | Adde fded | ^cAGE FDD2 |
| Adde fded | ^cABd cAdg | fee^c dgfd | =cAGE Dd^cd ||

